src/assets/flags/be.svg

<?xml version="1.0" encoding="UTF-8"?>
<svg xmlns="http://www.w3.org/2000/svg" xmlns:xlink="http://www.w3.org/1999/xlink" width="25px" height="px" viewBox="0 0 25 19" version="1.1">
<g id="surface1">
<path style=" stroke:none;fill-rule:evenodd;fill:rgb(0%,0%,0.392157%);fill-opacity:1;" d="M 0 0 L 8.332031 0 L 8.332031 19 L 0 19 Z M 0 0 "/>
<path style=" stroke:none;fill-rule:evenodd;fill:rgb(100%,85.09804%,4.705882%);fill-opacity:1;" d="M 8.332031 0 L 16.667969 0 L 16.667969 19 L 8.332031 19 Z M 8.332031 0 "/>
<path style=" stroke:none;fill-rule:evenodd;fill:rgb(95.294118%,9.411765%,18.82353%);fill-opacity:1;" d="M 16.667969 0 L 25 0 L 25 19 L 16.667969 19 Z M 16.667969 0 "/>
</g>
</svg>

<svg xmlns="http://www.w3.org/2000/svg" width="25" height="px" viewBox="0 0 25 19"><path d="M0 0h8.332v19H0Zm0 0" style="stroke:none;fill-rule:evenodd;fill:#000001;fill-opacity:1"/><path d="M8.332 0h8.336v19H8.332Zm0 0" style="stroke:none;fill-rule:evenodd;fill:#ffd90c;fill-opacity:1"/><path d="M16.668 0H25v19h-8.332Zm0 0" style="stroke:none;fill-rule:evenodd;fill:#f31830;fill-opacity:1"/></svg>
